X:1
T:Pols till Fred
R:Pols
C:Bruce Sagan
Z:ABC-transkribering av Bruce Sagan
M:3/4
L:1/8
K:D
A>G F<D F>A | (3(ABc) d2 A2 | B>A GF E>A | A<G FE D2 |
A>G F<D F>A | (3(ABc) d2 A2 | B>A GF E>C | (3(A,CE) D4 :|
|: g>f e<c e>g | g<f fd f>f | g>f ec A>c | d2 BG/B/ A2 |
g>f e<c e>g | g<f fd f>f | g>f ed c>B | (3(ABc) d4 :|

